src/assets/icon/icon-call-orange.svg

<svg height="50" viewBox="0 0 58 58" width="50" xmlns="http://www.w3.org/2000/svg" xmlns:xlink="http://www.w3.org/1999/xlink"><filter id="a" height="128%" width="128%" x="-14%"><feOffset dx="0" dy="2" in="SourceAlpha" result="shadowOffsetOuter1"/><feGaussianBlur in="shadowOffsetOuter1" result="shadowBlurOuter1" stdDeviation="2"/><feColorMatrix in="shadowBlurOuter1" result="shadowMatrixOuter1" type="matrix" values="0 0 0 0 0   0 0 0 0 0   0 0 0 0 0  0 0 0 0.5 0"/><feMerge><feMergeNode in="shadowMatrixOuter1"/><feMergeNode in="SourceGraphic"/></feMerge></filter><g fill="none" fill-rule="evenodd" filter="url(#a)" transform="translate(4 2)"><circle cx="25" cy="25" fill="#d28430" r="25"/><g transform="matrix(.89100652 -.4539905 .4539905 .89100652 11.163118 14.522335)"><path d="m5.89493324.6931317c.55923713-.33270322 1.17657683-.59609326 1.83749344-.6931317.02178846 2.74480151 0 5.49653434.01452564 8.24133585.02178846.42281034.02178846.84562067.00726282 1.26843101-.44303201-.00693132-.88606403.19407687-1.14026273.54064274-.41398074.5337114-.55197431 1.1991178-.66817943 1.836799-.24693588 1.5456836-.30503844 3.10523-.2905128 4.6647763.02178846 1.6288595.16704486 3.2577189.42850638 4.8727158.12346793.6238185.23241023 1.2822936.63186533 1.8090737.23241024.3257719.63912816.4921235 1.04584607.4921235.00726282 3.0913674 0 6.1827347 0 9.2741021-.67544225-.0346566-1.32183323-.3049779-1.88833318-.6376812-1.46708963-.8733459-2.55651262-2.2249527-3.36268564-3.6666666-1.40172425-2.5229994-2.02632676-5.3509767-2.31683956-8.1650914-.15978204-1.5387524-.21062178-3.084436-.18883332-4.6301197.06536538-3.1537492.41398074-6.34908634 1.51066655-9.34341527.47934612-1.29615626 1.11121145-2.55072463 1.96822421-3.66666666.65365379-.8594833 1.4598268-1.62885949 2.41125622-2.19722747z"/><path d="m5.89493324.6931317c.55923713-.33270322 1.17657683-.59609326 1.83749344-.6931317.02178846 2.74480151 0 5.49653434.01452564 8.24133585.02178846.42281034.02178846.84562067.00726282 1.26843101-.44303201-.00693132-.88606403.19407687-1.14026273.54064274-.41398074.5337114-.55197431 1.1991178-.66817943 1.836799-.24693588 1.5456836-.30503844 3.10523-.2905128 4.6647763.02178846 1.6288595.16704486 3.2577189.42850638 4.8727158.12346793.6238185.23241023 1.2822936.63186533 1.8090737.23241024.3257719.63912816.4921235 1.04584607.4921235.00726282 3.0913674 0 6.1827347 0 9.2741021-.67544225-.0346566-1.32183323-.3049779-1.88833318-.6376812-1.46708963-.8733459-2.55651262-2.2249527-3.36268564-3.6666666-1.40172425-2.5229994-2.02632676-5.3509767-2.31683956-8.1650914-.15978204-1.5387524-.21062178-3.084436-.18883332-4.6301197.06536538-3.1537492.41398074-6.34908634 1.51066655-9.34341527.47934612-1.29615626 1.11121145-2.55072463 1.96822421-3.66666666.65365379-.8594833 1.4598268-1.62885949 2.41125622-2.19722747z" fill="#fff" fill-rule="nonzero"/><path d="m8.11764706.00308927c.95048189 0 1.90096374-.00695086 2.85144564 0 .475241.00695087.8846793.36144494.9943503.79239852.0073114.29888716.0292456.90361234.036557 1.2024995v5.7622664c-.0658026.38229753.0658026.79934939-.1169824 1.16079432-.1608508.36144494-.5556663.60472519-.9724161.60472519-.92854766 0-1.85709535 0-2.78564304 0-.0073114-3.17654493-.0073114-6.346139-.0073114-9.52268393z"/><path d="m8.11764706.00308927c.95048189 0 1.90096374-.00695086 2.85144564 0 .475241.00695087.8846793.36144494.9943503.79239852.0073114.29888716.0292456.90361234.036557 1.2024995v5.7622664c-.0658026.38229753.0658026.79934939-.1169824 1.16079432-.1608508.36144494-.5556663.60472519-.9724161.60472519-.92854766 0-1.85709535 0-2.78564304 0-.0073114-3.17654493-.0073114-6.346139-.0073114-9.52268393z" fill="#fff" fill-rule="nonzero"/><path d="m8.11764706 23.814433h2.84413424c.475241.0068526.8919907.3563366 1.0016617.7811996.0073114.294663.0219342.8771363.036557 1.1649467v5.488955c-.0584912.4111576.0804254.883989-.1754736 1.2608835-.1974078.3220735-.5995347.4933892-.9870389.4865366-.90661346.0068526-1.80591555 0-2.71252904 0-.0073114-3.0631247-.0073114-6.1193967-.0073114-9.1825214z"/><path d="m8.11764706 23.814433h2.84413424c.475241.0068526.8919907.3563366 1.0016617.7811996.0073114.294663.0219342.8771363.036557 1.1649467v5.488955c-.0584912.4111576.0804254.883989-.1754736 1.2608835-.1974078.3220735-.5995347.4933892-.9870389.4865366-.90661346.0068526-1.80591555 0-2.71252904 0-.0073114-3.0631247-.0073114-6.1193967-.0073114-9.1825214z" fill="#fff" fill-rule="nonzero"/></g></g></svg>

<?xml version="1.0" encoding="UTF-8"?>
<svg width="50px" height="50px" viewBox="0 0 58 58" version="1.1" xmlns="http://www.w3.org/2000/svg" xmlns:xlink="http://www.w3.org/1999/xlink">
    <!-- Generator: Sketch 50.2 (55047) - http://www.bohemiancoding.com/sketch -->
    <title>call icon</title>
    <desc>Created with Sketch.</desc>
    <defs>
        <filter x="-14.0%" y="-10.0%" width="128.0%" height="128.0%" filterUnits="objectBoundingBox" id="filter-1">
            <feOffset dx="0" dy="2" in="SourceAlpha" result="shadowOffsetOuter1"></feOffset>
            <feGaussianBlur stdDeviation="2" in="shadowOffsetOuter1" result="shadowBlurOuter1"></feGaussianBlur>
            <feColorMatrix values="0 0 0 0 0   0 0 0 0 0   0 0 0 0 0  0 0 0 0.5 0" type="matrix" in="shadowBlurOuter1" result="shadowMatrixOuter1"></feColorMatrix>
            <feMerge>
                <feMergeNode in="shadowMatrixOuter1"></feMergeNode>
                <feMergeNode in="SourceGraphic"></feMergeNode>
            </feMerge>
        </filter>
    </defs>
    <g id="AAC" stroke="none" stroke-width="1" fill="none" fill-rule="evenodd">
        <g id="AAC-Mobile" transform="translate(-226.000000, -505.000000)">
            <g id="sticky-footer" transform="translate(0.000000, 497.000000)">
                <g id="call-icon" filter="url(#filter-1)" transform="translate(230.000000, 10.000000)">
                    <circle id="Oval-2" fill="#D28430" cx="25" cy="25" r="25"></circle>
                    <g id="Aiga_telephone" transform="translate(24.000000, 26.500000) rotate(-27.000000) translate(-24.000000, -26.500000) translate(18.000000, 10.000000)">
                        <path d="M5.89493324,0.693131695 C6.45417037,0.360428481 7.07151007,0.0970384373 7.73242668,0 C7.75421514,2.74480151 7.73242668,5.49653434 7.74695232,8.24133585 C7.76874078,8.66414619 7.76874078,9.08695652 7.75421514,9.50976686 C7.31118313,9.50283554 6.86815111,9.70384373 6.61395241,10.0504096 C6.19997167,10.584121 6.0619781,11.2495274 5.94577298,11.8872086 C5.6988371,13.4328922 5.64073454,14.9924386 5.65526018,16.5519849 C5.67704864,18.1808444 5.82230504,19.8097038 6.08376656,21.4247007 C6.20723449,22.0485192 6.31617679,22.7069943 6.71563189,23.2337744 C6.94804213,23.5595463 7.35476005,23.7258979 7.76147796,23.7258979 C7.76874078,26.8172653 7.76147796,29.9086326 7.76147796,33 C7.08603571,32.9653434 6.43964473,32.6950221 5.87314478,32.3623188 C4.40605515,31.4889729 3.31663216,30.1373661 2.51045914,28.6956522 C1.10873489,26.1726528 0.484132378,23.3446755 0.19361958,20.5305608 C0.0338375414,18.9918084 -0.0170021982,17.4461248 0.00478626162,15.9004411 C0.0701516411,12.7466919 0.418766998,9.55135476 1.51545281,6.55702583 C1.99479893,5.26086957 2.62666426,4.0063012 3.48367702,2.89035917 C4.13733081,2.03087587 4.94350382,1.26149968 5.89493324,0.693131695 Z" id="Shape"></path>
                        <path d="M5.89493324,0.693131695 C6.45417037,0.360428481 7.07151007,0.0970384373 7.73242668,0 C7.75421514,2.74480151 7.73242668,5.49653434 7.74695232,8.24133585 C7.76874078,8.66414619 7.76874078,9.08695652 7.75421514,9.50976686 C7.31118313,9.50283554 6.86815111,9.70384373 6.61395241,10.0504096 C6.19997167,10.584121 6.0619781,11.2495274 5.94577298,11.8872086 C5.6988371,13.4328922 5.64073454,14.9924386 5.65526018,16.5519849 C5.67704864,18.1808444 5.82230504,19.8097038 6.08376656,21.4247007 C6.20723449,22.0485192 6.31617679,22.7069943 6.71563189,23.2337744 C6.94804213,23.5595463 7.35476005,23.7258979 7.76147796,23.7258979 C7.76874078,26.8172653 7.76147796,29.9086326 7.76147796,33 C7.08603571,32.9653434 6.43964473,32.6950221 5.87314478,32.3623188 C4.40605515,31.4889729 3.31663216,30.1373661 2.51045914,28.6956522 C1.10873489,26.1726528 0.484132378,23.3446755 0.19361958,20.5305608 C0.0338375414,18.9918084 -0.0170021982,17.4461248 0.00478626162,15.9004411 C0.0701516411,12.7466919 0.418766998,9.55135476 1.51545281,6.55702583 C1.99479893,5.26086957 2.62666426,4.0063012 3.48367702,2.89035917 C4.13733081,2.03087587 4.94350382,1.26149968 5.89493324,0.693131695 Z" id="Shape" fill="#FFFFFF" fill-rule="nonzero"></path>
                        <path d="M8.11764706,0.00308927297 C9.06812895,0.00308927297 10.0186108,-0.00386159121 10.9690927,0.00308927297 C11.4443337,0.0100401371 11.853772,0.36453421 11.963443,0.795487789 C11.9707544,1.09437495 11.9926886,1.69910013 12,1.99798729 L12,7.76025369 C11.9341974,8.14255122 12.0658026,8.55960308 11.8830176,8.92104801 C11.7221668,9.28249295 11.3273513,9.5257732 10.9106015,9.5257732 C9.98205384,9.5257732 9.05350615,9.5257732 8.12495846,9.5257732 C8.11764706,6.34922827 8.11764706,3.1796342 8.11764706,0.00308927297 Z" id="Shape"></path>
                        <path d="M8.11764706,0.00308927297 C9.06812895,0.00308927297 10.0186108,-0.00386159121 10.9690927,0.00308927297 C11.4443337,0.0100401371 11.853772,0.36453421 11.963443,0.795487789 C11.9707544,1.09437495 11.9926886,1.69910013 12,1.99798729 L12,7.76025369 C11.9341974,8.14255122 12.0658026,8.55960308 11.8830176,8.92104801 C11.7221668,9.28249295 11.3273513,9.5257732 10.9106015,9.5257732 C9.98205384,9.5257732 9.05350615,9.5257732 8.12495846,9.5257732 C8.11764706,6.34922827 8.11764706,3.1796342 8.11764706,0.00308927297 Z" id="Shape" fill="#FFFFFF" fill-rule="nonzero"></path>
                        <path d="M8.11764706,23.814433 C9.06812895,23.814433 10.0112994,23.814433 10.9617813,23.814433 C11.4370223,23.8212856 11.853772,24.1707696 11.963443,24.5956326 C11.9707544,24.8902956 11.9853772,25.4727689 12,25.7605793 L12,31.2495343 C11.9415088,31.6606919 12.0804254,32.1335233 11.8245264,32.5104178 C11.6271186,32.8324913 11.2249917,33.003807 10.8374875,32.9969544 C9.93087404,33.003807 9.03157195,32.9969544 8.12495846,32.9969544 C8.11764706,29.9338297 8.11764706,26.8775577 8.11764706,23.814433 Z" id="Shape"></path>
                        <path d="M8.11764706,23.814433 C9.06812895,23.814433 10.0112994,23.814433 10.9617813,23.814433 C11.4370223,23.8212856 11.853772,24.1707696 11.963443,24.5956326 C11.9707544,24.8902956 11.9853772,25.4727689 12,25.7605793 L12,31.2495343 C11.9415088,31.6606919 12.0804254,32.1335233 11.8245264,32.5104178 C11.6271186,32.8324913 11.2249917,33.003807 10.8374875,32.9969544 C9.93087404,33.003807 9.03157195,32.9969544 8.12495846,32.9969544 C8.11764706,29.9338297 8.11764706,26.8775577 8.11764706,23.814433 Z" id="Shape" fill="#FFFFFF" fill-rule="nonzero"></path>
                    </g>
                </g>
            </g>
        </g>
    </g>
</svg>
